X: 3
T:Ye Banks and Braes
% Nottingham Music Database
S:Kevin Briggs
M:3/4
L:1/4
K:D
A|"D"d2d|"A7/e"e3/2d/2e|"D/f+"faf|"A7/e"e3/2d/2e|"D"f3/2e/2d|"G"dBA|"Em"ABd|\
"A7"e2A|
"D"d2d|"A7/e"e3/2d/2e|"D/f+"faf|"A7/e"e3/2d/2e|"D"f3/2e/2d|"G"dBA|"A7"ABd|\
"D"d2f||
"D"a2"G"b|"D"afd|"D"a2"G"b|"D"afd|"D"afd|"D"afd|"Em"ba/2g/2f|"A7"
P:pause
e2A|"D"d2d|"A7/e"e3/2d/2e|"D/f+"faf|"A7/e"e3/2d/2e|"D"f3/2e/2d|"G"dBA|"A7"ABd|\
"D"d2||<end>
<start>
